X: 34170
T: Reel O'Whirlie
R: reel
M: 4/4
K: Gmajor
|:D|G2 GA BGGB|gBBG A2 Ac|B2 BA GBge|dBBA G2 GD|
G2 GA BDGB|dgBG A2 Ac|B2 BA GBge|dBBA (G2G):|
|:d|g2 gd Bded|gBdB A2 Ac|B2 BG Bdef|gagf edef|
g2 gd Bded|gBdB A2 Ac|B2 BG EGce|dBBA (G2G):|

